Numix/16/emotes/face-uncertain.svg

<?xml version="1.0" encoding="UTF-8" standalone="no"?>
<svg
   xmlns:dc="http://purl.org/dc/elements/1.1/"
   xmlns:cc="http://creativecommons.org/ns#"
   xmlns:rdf="http://www.w3.org/1999/02/22-rdf-syntax-ns#"
   xmlns:svg="http://www.w3.org/2000/svg"
   xmlns="http://www.w3.org/2000/svg"
   xmlns:sodipodi="http://sodipodi.sourceforge.net/DTD/sodipodi-0.dtd"
   xmlns:inkscape="http://www.inkscape.org/namespaces/inkscape"
   width="16px"
   height="16px"
   viewBox="0 0 12 12"
   version="1.1"
   id="svg3266"
   inkscape:version="0.91 r"
   sodipodi:docname="face-uncertain.svg">
  <metadata
     id="metadata3281">
    <rdf:RDF>
      <cc:Work
         rdf:about="">
        <dc:format>image/svg+xml</dc:format>
        <dc:type
           rdf:resource="http://purl.org/dc/dcmitype/StillImage" />
      </cc:Work>
    </rdf:RDF>
  </metadata>
  <defs
     id="defs3279" />
  <sodipodi:namedview
     pagecolor="#ffffff"
     bordercolor="#666666"
     borderopacity="1"
     objecttolerance="10"
     gridtolerance="10"
     guidetolerance="10"
     inkscape:pageopacity="0"
     inkscape:pageshadow="2"
     inkscape:window-width="640"
     inkscape:window-height="480"
     id="namedview3277" />
  <g
     id="surface1">
    <path
       style=" stroke:none;fill-rule:nonzero;fill:rgb(100%,85.098039%,36.078431%);fill-opacity:1;"
       d="M 11.25 6 C 11.25 8.484375 8.898438 10.5 6 10.5 C 3.101562 10.5 0.75 8.484375 0.75 6 C 0.75 3.515625 3.097656 1.5 6 1.5 C 8.902344 1.5 11.25 3.515625 11.25 6 Z M 11.25 6 "
       id="path3269" />
    <path
       style="fill:none;stroke-width:0.855827;stroke-linecap:butt;stroke-linejoin:miter;stroke:rgb(38.823529%,38.823529%,38.823529%);stroke-opacity:1;stroke-miterlimit:4;"
       d="M 9.078125 16.304688 C 9 15.890625 9.125 15.429688 9.414062 15.117188 C 9.570312 14.9375 9.78125 14.796875 10.007812 14.71875 C 10.234375 14.632812 10.484375 14.601562 10.71875 14.609375 C 11.203125 14.625 11.671875 14.804688 12.039062 15.101562 C 12.453125 15.429688 12.742188 15.890625 13.085938 16.296875 C 13.421875 16.6875 13.828125 17.046875 14.304688 17.25 C 14.632812 17.390625 15 17.453125 15.351562 17.4375 "
       transform="matrix(0.5,0,0,0.5,0,0)"
       id="path3271" />
    <path
       style=" stroke:none;fill-rule:nonzero;fill:rgb(38.823529%,38.823529%,38.823529%);fill-opacity:1;"
       d="M 4.746094 4.371094 L 3.398438 4.734375 C 3.386719 4.792969 3.375 4.855469 3.375 4.921875 C 3.375 5.363281 3.730469 5.71875 4.171875 5.71875 C 4.613281 5.71875 4.96875 5.363281 4.96875 4.921875 C 4.96875 4.707031 4.882812 4.515625 4.746094 4.371094 Z M 4.746094 4.371094 "
       id="path3273" />
    <path
       style=" stroke:none;fill-rule:nonzero;fill:rgb(39.607843%,39.607843%,39.607843%);fill-opacity:1;"
       d="M 8.625 4.921875 C 8.625 5.363281 8.269531 5.71875 7.828125 5.71875 C 7.386719 5.71875 7.03125 5.363281 7.03125 4.921875 C 7.03125 4.480469 7.386719 4.125 7.828125 4.125 C 8.269531 4.125 8.625 4.480469 8.625 4.921875 Z M 8.625 4.921875 "
       id="path3275" />
  </g>
</svg>

<svg xmlns="http://www.w3.org/2000/svg" width="16" height="16" viewBox="0 0 12 12">
 <g>
  <path d="m 11.25 6 c 0 2.484 -2.352 4.5 -5.25 4.5 c -2.898 0 -5.25 -2.02 -5.25 -4.5 c 0 -2.484 2.348 -4.5 5.25 -4.5 c 2.902 0 5.25 2.02 5.25 4.5 m 0 0" style="fill:#ffd85b;fill-opacity:1;stroke:none;fill-rule:nonzero"/>
  <path d="m 9.08 16.305 c -0.078 -0.414 0.047 -0.875 0.336 -1.187 c 0.156 -0.18 0.367 -0.32 0.594 -0.398 c 0.227 -0.086 0.477 -0.117 0.711 -0.109 c 0.484 0.016 0.953 0.195 1.32 0.492 c 0.414 0.328 0.703 0.789 1.047 1.195 c 0.336 0.391 0.742 0.75 1.219 0.953 c 0.328 0.141 0.695 0.203 1.047 0.188" transform="matrix(0.5,0,0,0.5,0,0)" style="stroke-opacity:1;fill:none;stroke-miterlimit:4;stroke:#626262;stroke-linecap:butt;stroke-linejoin:miter;stroke-width:0.856"/>
  <path d="m 4.746 4.371 l -1.348 0.363 c -0.012 0.059 -0.023 0.121 -0.023 0.188 c 0 0.441 0.355 0.797 0.797 0.797 c 0.441 0 0.797 -0.355 0.797 -0.797 c 0 -0.215 -0.086 -0.406 -0.223 -0.551 m 0 0" style="fill:#626262;fill-opacity:1;stroke:none;fill-rule:nonzero"/>
  <path d="m 8.625 4.922 c 0 0.441 -0.355 0.797 -0.797 0.797 c -0.441 0 -0.797 -0.355 -0.797 -0.797 c 0 -0.441 0.355 -0.797 0.797 -0.797 c 0.441 0 0.797 0.355 0.797 0.797 m 0 0" style="fill:#646464;fill-opacity:1;stroke:none;fill-rule:nonzero"/>
 </g>
</svg>
